symbols/web/topic/materialsymbolsrounded/topic_wght500gradN25_24px.svg

<svg xmlns="http://www.w3.org/2000/svg" height="24" width="24"><path d="M7 11.925h10q.4 0 .675-.275t.275-.65q0-.4-.275-.675T17 10.05H7q-.375 0-.65.275T6.075 11q0 .375.275.65t.65.275Zm0 4h6q.4 0 .675-.275t.275-.65q0-.4-.275-.675T13 14.05H7q-.375 0-.65.275T6.075 15q0 .375.275.65t.65.275ZM4.2 20q-.9 0-1.525-.625-.625-.625-.625-1.525V6.175q0-.875.625-1.513.625-.637 1.525-.637h4.95q.425 0 .825.175.4.175.7.475L12 6h7.8q.9 0 1.525.625.625.625.625 1.525v9.7q0 .9-.625 1.525Q20.7 20 19.8 20Zm0-13.825V17.85h15.6v-9.7h-8.7L9.15 6.175H4.2Zm0 0V17.85Z"/></svg>

<svg xmlns="http://www.w3.org/2000/svg" height="24" width="24"><path d="M7 11.925H17Q17.4 11.925 17.675 11.65Q17.95 11.375 17.95 11Q17.95 10.6 17.675 10.325Q17.4 10.05 17 10.05H7Q6.625 10.05 6.35 10.325Q6.075 10.6 6.075 11Q6.075 11.375 6.35 11.65Q6.625 11.925 7 11.925ZM7 15.925H13Q13.4 15.925 13.675 15.65Q13.95 15.375 13.95 15Q13.95 14.6 13.675 14.325Q13.4 14.05 13 14.05H7Q6.625 14.05 6.35 14.325Q6.075 14.6 6.075 15Q6.075 15.375 6.35 15.65Q6.625 15.925 7 15.925ZM4.2 20Q3.3 20 2.675 19.375Q2.05 18.75 2.05 17.85V6.175Q2.05 5.3 2.675 4.662Q3.3 4.025 4.2 4.025H9.15Q9.575 4.025 9.975 4.2Q10.375 4.375 10.675 4.675L12 6H19.8Q20.7 6 21.325 6.625Q21.95 7.25 21.95 8.15V17.85Q21.95 18.75 21.325 19.375Q20.7 20 19.8 20ZM4.2 6.175V17.85Q4.2 17.85 4.2 17.85Q4.2 17.85 4.2 17.85H19.8Q19.8 17.85 19.8 17.85Q19.8 17.85 19.8 17.85V8.15Q19.8 8.15 19.8 8.15Q19.8 8.15 19.8 8.15H11.1L9.15 6.175H4.2Q4.2 6.175 4.2 6.175Q4.2 6.175 4.2 6.175ZM4.2 6.175Q4.2 6.175 4.2 6.175Q4.2 6.175 4.2 6.175V8.15Q4.2 8.15 4.2 8.15Q4.2 8.15 4.2 8.15V17.85Q4.2 17.85 4.2 17.85Q4.2 17.85 4.2 17.85Q4.2 17.85 4.2 17.85Q4.2 17.85 4.2 17.85Z"/></svg>
